X:8
T:Lost Banjo, The
R:reel
C:Henrik Norbeck
H:Composed on a banjo that had been standing in a cupboard for many years.
H:November 1990.
M:C|
K:D
Ad~d2 efdB|Ad~d2 efge|afge fdec|1 dfed =cAdc:|2 dfec d2ef||
g2fg eaaf|g2fg edBd|g2fg eaab|afge d2ef|
g2fg eaaf|gafd e2fg|afge fdec|dfed =cAdc||

